assets/image/logo/logo.svg

<svg width="284" height="284" viewBox="0 0 284 284" fill="none" xmlns="http://www.w3.org/2000/svg">
<g clip-path="url(#clip0_394_2)">
<path d="M128.25 99.04C128.25 99.04 120.47 63.89 95.3699 34.25C91.3299 29.48 91.9599 22.31 96.8999 18.49C111.51 7.19995 143.61 -10.49 195.85 9.56995C234.5 24.4 258.85 91.3299 198.92 139.15C198.92 139.15 190.47 85.93 128.23 99.04H128.25Z" fill="#290571"/>
<path d="M200.53 167.1C200.53 167.1 233.17 182.04 271.85 179.78C278.08 179.42 283.4 184.24 283.46 190.5C283.64 209 278.37 245.38 230.96 275.17C195.89 297.21 128 276.41 126.07 199.58C126.07 199.58 173.48 224.86 200.54 167.09L200.53 167.1Z" fill="#1FC614"/>
<path d="M111.82 193.74C111.82 193.74 85.6199 218.34 72.9599 255.1C70.9199 261.02 64.4499 264.11 58.6599 261.78C41.5499 254.89 10.0599 236.14 0.699919 180.77C-6.22008 139.82 38.7999 84.7399 110.29 112.24C110.29 112.24 68.9299 146.6 111.82 193.74Z" fill="#FF1009"/>
<path d="M146.69 191.6C168.754 191.6 186.64 173.642 186.64 151.49C186.64 129.338 168.754 111.38 146.69 111.38C124.626 111.38 106.74 129.338 106.74 151.49C106.74 173.642 124.626 191.6 146.69 191.6Z" fill="#290571"/>
</g>
<defs>
<clipPath id="clip0_394_2">
<rect width="283.46" height="283.46" fill="white"/>
</clipPath>
</defs>
</svg>

<?xml version="1.0" encoding="UTF-8"?><svg id="Laag_1" xmlns="http://www.w3.org/2000/svg" viewBox="0 0 283.46 283.46"><defs><style>.cls-1{fill:#fff;}</style></defs><path class="cls-1" d="M128.25,99.04s-7.78-35.15-32.88-64.79c-4.04-4.77-3.41-11.94,1.53-15.76,14.61-11.29,46.71-28.98,98.95-8.92,38.65,14.83,63,81.76,3.07,129.58,0,0-8.45-53.22-70.69-40.11Z"/><path class="cls-1" d="M200.53,167.1s32.64,14.94,71.32,12.68c6.23-.36,11.55,4.46,11.61,10.72,.18,18.5-5.09,54.88-52.5,84.67-35.07,22.04-102.96,1.24-104.89-75.59,0,0,47.41,25.28,74.47-32.49Z"/><path class="cls-1" d="M111.82,193.74s-26.2,24.6-38.86,61.36c-2.04,5.92-8.51,9.01-14.3,6.68-17.11-6.89-48.6-25.64-57.96-81.01-6.92-40.95,38.1-96.03,109.59-68.53,0,0-41.36,34.36,1.53,81.5Z"/><ellipse class="cls-1" cx="146.69" cy="151.49" rx="39.95" ry="40.11"/></svg>
